X: 20594
T: GROTESQUE DANCE
Q: "With spirit."
%R: jig
B: W. Hamilton "Universal Tune-Book" Vol. 2 Glasgow 1846 p.59 #4
S: http://s3-eu-west-1.amazonaws.com/itma.dl.printmaterial/book_pdfs/hamiltonvol2web.pdf
Z: 2016 John Chambers <jc:trillian.mit.edu>
M: 6/8
L: 1/8
K: G
% - - - - - - - - - - - - - - - - - - - - - - - - -
D |\
D2B (^A2B) | D2B (^A2B) | D2B dcB | cde A2A |\
D2B (^A2B) | D2B (^A2B) | D2A cBA | Bcd "^Fin."G2 H|]
d |\
b3 bag | gff f2d | a3 agf | fgg g2d |\
b3 bag | gff f2d | a3 agf | d3- "^D.C."d2 |]
% - - - - - - - - - - - - - - - - - - - - - - - - -

%%sep 1 1 500
%%sep 1 1 500

